X:1
L:1/8
Q:1/4=130
M:4/4
K:G
 G/G/G B/c/d B>AG>A | A>GF>f A>GFA | G/G/G B/c/d B>AG>c | AFcA G2 d2 || Bd d/e/f gd B/c/d/B/ | 
 gd B/c/d fc A/B/c | Bd de/f/ g/f/e/d/ e/d/c/B/ | c/B/A/G/ AF G2 d2 |]
